app/component-library/components/Icons/Icon/assets/scroll.svg

<svg width="24" height="24" viewBox="0 0 24 24" fill="none" xmlns="http://www.w3.org/2000/svg">
<path d="M16.4713 2H8.09125C4.45125 2 2.28125 4.17 2.28125 7.81V16.18C2.28125 19.83 4.45125 22 8.09125 22H16.4613C20.1013 22 22.2712 19.83 22.2712 16.19V7.81C22.2812 4.17 20.1113 2 16.4713 2ZM10.4113 14.5C10.7013 14.79 10.7013 15.27 10.4113 15.56C10.2613 15.71 10.0713 15.78 9.88125 15.78C9.69125 15.78 9.50125 15.71 9.35125 15.56L6.86125 13.07C6.27125 12.48 6.27125 11.53 6.86125 10.94L9.35125 8.45C9.64125 8.16 10.1213 8.16 10.4113 8.45C10.7013 8.74 10.7013 9.22 10.4113 9.51L7.92125 12L10.4113 14.5ZM17.7013 13.06L15.2113 15.55C15.0613 15.7 14.8712 15.77 14.6812 15.77C14.4912 15.77 14.3012 15.7 14.1512 15.55C13.8612 15.26 13.8612 14.78 14.1512 14.49L16.6413 12L14.1512 9.5C13.8612 9.21 13.8612 8.73 14.1512 8.44C14.4412 8.15 14.9213 8.15 15.2113 8.44L17.7013 10.93C18.2913 11.52 18.2913 12.48 17.7013 13.06Z" fill="currentColor"/>
</svg>

<svg xmlns="http://www.w3.org/2000/svg" width="24" height="24" viewBox="0 0 24 24" fill="none"><path fill="currentColor" d="M16.471 2h-8.38c-3.64 0-5.81 2.17-5.81 5.81v8.37c0 3.65 2.17 5.82 5.81 5.82h8.37c3.64 0 5.81-2.17 5.81-5.81V7.81c.01-3.64-2.16-5.81-5.8-5.81Zm-6.06 12.5c.29.29.29.77 0 1.06-.15.15-.34.22-.53.22s-.38-.07-.53-.22l-2.49-2.49c-.59-.59-.59-1.54 0-2.13l2.49-2.49c.29-.29.77-.29 1.06 0 .29.29.29.77 0 1.06L7.921 12l2.49 2.5Zm7.29-1.44-2.49 2.49c-.15.15-.34.22-.53.22s-.38-.07-.53-.22a.754.754 0 0 1 0-1.06l2.49-2.49-2.49-2.5a.754.754 0 0 1 0-1.06c.29-.29.77-.29 1.06 0l2.49 2.49c.59.59.59 1.55 0 2.13Z"/></svg>
